packages/core/src/svgs/tokens/mono/STRAX.svg

<svg width="24" height="24" viewBox="0 0 24 24" fill="none" xmlns="http://www.w3.org/2000/svg">
<path d="M11.6881 2.97149C11.7816 2.91306 11.8896 2.88208 12 2.88208C12.1102 2.88208 12.2182 2.91306 12.3117 2.97149L21.7234 8.85378C21.81 8.90789 21.881 8.9836 21.9294 9.07347C21.9779 9.16335 22.0022 9.26431 21.9998 9.36643C21.9974 9.46841 21.9686 9.56819 21.916 9.65562C21.8633 9.74319 21.7889 9.81552 21.6998 9.86548L12.2882 15.1596C12.2001 15.209 12.1008 15.2351 12 15.2351C11.8989 15.2351 11.7997 15.209 11.7117 15.1596L3.17646 10.3596V11.9479L12 16.9125L21.1233 11.7832C21.2128 11.733 21.3139 11.7069 21.4164 11.7077C21.519 11.7085 21.6197 11.7363 21.7082 11.788C21.7968 11.8397 21.8703 11.9137 21.9215 12.0027C21.9727 12.0916 21.9997 12.1923 21.9998 12.2949V14.9419C21.9998 15.0441 21.9732 15.1444 21.9227 15.2331C21.8722 15.3217 21.7995 15.3958 21.7116 15.4479L12.2999 21.036C12.211 21.0886 12.1099 21.1167 12.0065 21.1178C11.9033 21.1188 11.8016 21.0927 11.7117 21.0419L2.3 15.7479C2.17316 15.6669 2.08215 15.5405 2.04564 15.3946C2.00914 15.2487 2.02995 15.0943 2.10376 14.9632C2.17759 14.8321 2.29883 14.7344 2.44255 14.69C2.58627 14.6455 2.74154 14.6578 2.87646 14.7243L11.994 19.8478L20.8233 14.6184V13.2949L12.2882 18.0949C12.2001 18.1444 12.1008 18.1703 12 18.1703C11.8989 18.1703 11.7997 18.1444 11.7117 18.0949L2.3 12.8008C2.20913 12.7497 2.13347 12.6755 2.08076 12.5856C2.02804 12.4955 2.00018 12.3933 2 12.2891V9.3479C1.9998 9.24794 2.02508 9.14957 2.07345 9.06208C2.12183 8.9746 2.19169 8.90089 2.27647 8.84791L11.6881 2.9656V2.97149ZM3.74116 9.32443L12 13.9714L20.2586 9.32443L12 4.16559L3.74116 9.32443Z" fill="white"/>
</svg>

<svg xmlns="http://www.w3.org/2000/svg" width="24" height="24" fill="none" viewBox="0 0 24 24">
    <path fill="#fff" d="M11.688 2.971a.59.59 0 0 1 .624 0l9.411 5.883a.588.588 0 0 1-.023 1.011l-9.412 5.295a.59.59 0 0 1-.576 0l-8.536-4.8v1.588L12 16.913l9.123-5.13a.59.59 0 0 1 .877.512v2.647a.59.59 0 0 1-.288.506L12.3 21.036a.59.59 0 0 1-.588.006L2.3 15.748a.589.589 0 0 1 .576-1.024l9.118 5.124 8.83-5.23v-1.323l-8.536 4.8a.59.59 0 0 1-.576 0L2.3 12.8a.59.59 0 0 1-.3-.512v-2.94a.59.59 0 0 1 .276-.5l9.412-5.882zM3.741 9.324 12 13.971l8.259-4.647L12 4.166z"/>
</svg>
